build/security/UnsafetySolid.svg

<svg xmlns="http://www.w3.org/2000/svg" fill="none" viewBox="0 0 24 24" focusable="false"><path d="M0 0H24V24H0z"/><path fill="#74767B" fill-rule="evenodd" d="M4.9847 4.75384C4.40599 4.89852 4 5.4185 4 6.01503L4 11.2454C4 14.3485 5.59858 17.2328 8.23001 18.8774L11.311 20.803C11.7326 21.0665 12.2674 21.0665 12.689 20.803L15.77 18.8774C18.4014 17.2328 20 14.3485 20 11.2454L20 6.01503C20 5.4185 19.594 4.89852 19.0153 4.75384L12.7276 3.18192C12.2499 3.06249 11.7501 3.06249 11.2724 3.18192L4.9847 4.75384ZM12 13.7962C12.359 13.7962 12.65 13.5052 12.65 13.1462L12.65 7.99999C12.65 7.64101 12.359 7.34999 12 7.34999C11.641 7.34999 11.35 7.64101 11.35 7.99999L11.35 13.1462C11.35 13.5052 11.641 13.7962 12 13.7962ZM12 16.65C12.4142 16.65 12.75 16.3142 12.75 15.9C12.75 15.4858 12.4142 15.15 12 15.15C11.5858 15.15 11.25 15.4858 11.25 15.9C11.25 16.3142 11.5858 16.65 12 16.65Z"/></svg>

<svg xmlns="http://www.w3.org/2000/svg" fill="none" viewBox="0 0 24 24" focusable="false"><path fill="#74767B" fill-rule="evenodd" d="M4.98 4.75C4.4 4.89 4 5.41 4 6.01v5.23c0 3.1 1.59 5.99 4.22 7.63l3.09 1.93c.42.26.95.26 1.37 0l3.09-1.93A9 9 0 0 0 20 11.24V6.01c0-.6-.41-1.12-.99-1.26l-6.29-1.57c-.48-.12-.97-.12-1.45 0zM12 13.79c.35 0 .65-.29.65-.65V8c0-.36-.3-.65-.65-.65-.36 0-.65.29-.65.65v5.14c0 .36.29.65.65.65m0 2.86a.749.749 0 1 0 0-1.5c-.42 0-.75.33-.75.75 0 .41.33.75.75.75"/></svg>
